img/profileIcon.svg

<svg width="22" height="22" viewBox="0 0 22 22" fill="none" xmlns="http://www.w3.org/2000/svg">
<path fill-rule="evenodd" clip-rule="evenodd" d="M10.485 0.0101495C9.68382 0.102982 9.03028 0.273511 8.41584 0.55003C6.45861 1.4308 5.0993 3.20381 4.7283 5.35985C4.64534 5.8422 4.65718 7.0166 4.7498 7.48669C4.92865 8.39433 5.31828 9.31225 5.82731 10.0251C6.15131 10.4788 6.71974 11.0729 7.12112 11.3773L7.40512 11.5927L7.2819 11.6396C5.83619 12.1898 4.63804 12.916 3.61346 13.8631C1.42047 15.8905 0.194684 18.4895 0.0298722 21.4614V21.4614C0.0136488 21.7539 0.246464 22 0.539417 22H0.864662H1.52182C1.63642 22 1.72932 21.9071 1.72932 21.7925V21.7925C1.72932 21.2044 1.89126 20.1325 2.078 19.4846C2.56643 17.79 3.53844 16.2402 4.84337 15.0752C6.77468 13.3511 9.33338 12.509 11.8831 12.7583C13.0498 12.8724 14.0471 13.1623 15.1418 13.7055C17.4352 14.8436 19.1988 16.9757 19.922 19.4846C20.1087 20.1325 20.2707 21.2044 20.2707 21.7925V21.7925C20.2707 21.9071 20.3636 22 20.4782 22H21.1353H21.4606C21.7535 22 21.9864 21.7539 21.9701 21.4614V21.4614C21.8239 18.8255 20.822 16.4354 19.0703 14.5441C17.8478 13.2241 16.4755 12.3083 14.7181 11.6396L14.5949 11.5927L14.8789 11.3773C16.0647 10.478 16.9455 9.03272 17.2502 7.48669C17.3428 7.0166 17.3547 5.8422 17.2717 5.35985C16.8049 2.64712 14.7666 0.572131 12.0945 0.0893945C11.7472 0.0266607 10.7613 -0.0218839 10.485 0.0101495ZM11.726 1.77104C14.2526 2.18154 15.9766 4.56112 15.5695 7.07615C15.1597 9.60735 12.7844 11.3344 10.274 10.9266C7.74737 10.5161 6.02341 8.13648 6.43054 5.62145C6.8403 3.0903 9.21565 1.36316 11.726 1.77104Z" fill="#7A7A7A"/>
</svg>

<svg width="22" height="22" fill="none" xmlns="http://www.w3.org/2000/svg"><path fill-rule="evenodd" clip-rule="evenodd" d="M10.485.01c-.801.093-1.455.264-2.07.54C6.46 1.43 5.1 3.204 4.729 5.36c-.083.482-.07 1.657.022 2.127a6.74 6.74 0 001.077 2.538c.324.454.893 1.048 1.294 1.352l.284.216-.123.047c-1.446.55-2.644 1.276-3.669 2.223C1.42 15.89.195 18.49.03 21.461A.51.51 0 00.54 22h.982a.207.207 0 00.207-.207c0-.589.162-1.66.349-2.308a9.462 9.462 0 012.765-4.41 9.242 9.242 0 017.04-2.317c1.167.114 2.164.404 3.259.948 2.293 1.138 4.057 3.27 4.78 5.779.187.648.349 1.72.349 2.308 0 .114.093.207.207.207h.983a.51.51 0 00.51-.539c-.147-2.635-1.149-5.026-2.9-6.917-1.223-1.32-2.596-2.236-4.353-2.904l-.123-.047.284-.216c1.186-.899 2.066-2.344 2.371-3.89.093-.47.105-1.645.022-2.127-.467-2.713-2.505-4.788-5.177-5.27-.348-.063-1.334-.112-1.61-.08zm1.241 1.761c2.527.41 4.25 2.79 3.843 5.305-.41 2.531-2.785 4.258-5.295 3.85-2.527-.41-4.25-2.79-3.843-5.305.41-2.53 2.785-4.258 5.295-3.85z" fill="#7A7A7A"/></svg>
